**kern	**silbe	**kern	**silbe
*ICvox	*	*ICvox	*
=1	=1	=1	=1
*d:	*	*d:	*
*M2/4	*	*M2/4	*
*clefG2	*	*clefG2	*
2r	.	2r	.
=2	=2	=2	=2
*M4/4	*	*M4/4	*
1r	.	1r	.
=3	=3	=3	=3
*M2/4	*	*M2/4	*
2r	.	2r	.
=4	=4	=4	=4
*M4/4	*	*M4/4	*
1r	.	1r	.
=5	=5	=5	=5
*M2/4	*	*M2/4	*
2r	.	2r	.
=6	=6	=6	=6
*M4/4	*	*M4/4	*
1r	.	1r	.
=7	=7	=7	=7
*M2/4	*	*M2/4	*
2r	.	2r	.
=8	=8	=8	=8
*M4/4	*	*M4/4	*
1r	.	1r	.
=9	=9	=9	=9
1r	.	1r	.
=10	=10	=10	=10
1r	.	1r	.
=11	=11	=11	=11
*clefC3	*	*	*
8.r	.	1r	.
16G	I	.	.
8c	do	.	.
16d	be-	.	.
[16e	-lieve	.	.
16e]	_	.	.
8d	in	.	.
16c	you	.	.
8G	_	.	.
8r	,	.	.
=12	=12	=12	=12
16e-	and	1r	.
8f	I	.	.
fq	_	.	.
[16g	know	.	.
16g]	_	.	.
16f	you	.	.
16e-	be-	.	.
fq	_	.	.
[16g	-lieve	.	.
16g]	_	.	.
16f	_	.	.
16f	in	.	.
cq	_	.	.
[16d	me	.	.
16d]	_	.	.
16c	_	.	.
16B-	_	.	.
16r	,	.	.
=13	=13	=13	=13
fq	_	1r	.
8g	oh	.	.
4f	,	.	.
cq	_	.	.
8d	yeah	.	.
4c	_	.	.
4r	!	.	.
=14	=14	=14	=14
fq	_	1r	.
8g	Oh	.	.
4f	,	.	.
cq	_	.	.
8d	yeah	.	.
4c	_	.	.
4r	!	.	.
=15	=15	=15	=15
8.r	.	1r	.
16G	But	.	.
8c	now	.	.
8d	we	.	.
16e	rea	.	.
8d	_	.	.
16c	lize	.	.
8G	_	.	.
8r	,	.	.
=16	=16	=16	=16
8e-	love's	1r	.
16f	not	.	.
fq	_	.	.
[16g	all	.	.
16g]	_	.	.
16f	that	.	.
16e-	it's	.	.
fq	_	.	.
[16g	s'posed	.	.
16g]	_	.	.
16f	_	.	.
16f	to	.	.
cq	_	.	.
[16d	be	.	.
16d]	_	.	.
16c	_	.	.
16B-	_	.	.
16r	,	.	.
=17	=17	=17	=17
fq	_	1r	.
8g	oh	.	.
4f	,	.	.
cq	_	.	.
8d	yeah	.	.
4c	_	.	.
4r	!	.	.
=18	=18	=18	=18
fq	_	1r	.
8g	Oh	.	.
4f	,	.	.
cq	_	.	.
8d	yeah	.	.
4c	_	.	.
4r	!	.	.
=19	=19	=19	=19
8.r	.	1r	.
16A	And	.	.
8a	kno-	.	.
16b-	-wing	.	.
[16a	that	.	.
16a]	_	.	.
fq	_	.	.
8.g	you	.	.
8f	would	.	.
8e	have	.	.
=20	=20	=20	=20
8f	wan-	1r	.
16g	-ted	.	.
[16f	it	.	.
16f]	_	.	.
8e	this	.	.
[16d	way	.	.
4d]	_	.	.
4r	.	.	.
=21	=21	=21	=21
8.r	.	1r	.
16A	I	.	.
8a	do	.	.
16b-	be-	.	.
[16a	-lieve	.	.
16a]	_	.	.
32f	I'm	.	.
32g	_	.	.
8g	_	.	.
16f	fee-	.	.
8.e	-ling	.	.
=22	=22	=22	=22
*M2/4	*	*M2/4	*
8f	stron-	2r	.
16g	-ger	.	.
16f	ev-	.	.
16e	-'ry-	.	.
32d	-day	.	.
32e	_	.	.
[8d	_	.	.
=23	=23	=23	=23
*M4/4	*	*M4/4	*
4.d]	_	1r	.
8r	!	.	.
2r	.	.	.
=24	=24	=24	=24
8.r	.	1r	.
16G	I	.	.
Aq	_	.	.
8c	know	.	.
8d	we	.	.
16e	real-	.	.
8d	-ly	.	.
16c	tried	.	.
8G	_	.	.
16r	,	.	.
16G	to-	.	.
=25	=25	=25	=25
dq	_	2g b- ee-	_
16e-	-ge-	.	.
8f	-ther	.	.
fq	_	.	.
[16g	we	.	.
16g]	_	.	.
16f	had	.	.
16e-	_	.	.
fq	_	.	.
[16g	love	.	.
16g]	_	2f b- dd	_
16f	_	.	.
16f	in-	.	.
cq	_	.	.
[16d	-side	.	.
16d]	_	.	.
16c	_	.	.
16B-	_	.	.
16r	,	.	.
=26	=26	=26	=26
fq	_	1r	.
8g	oh	.	.
4f	,	.	.
cq	_	.	.
8d	yeah	.	.
4c	_	.	.
4r	!	.	.
=27	=27	=27	=27
fq	_	1r	.
8g	Oh	.	.
4f	,	.	.
cq	_	.	.
8d	yeah	.	.
4c	_	.	.
4r	!	.	.
=28	=28	=28	=28
8.r	.	1r	.
16G	So	.	.
8c	now	.	.
16d	the	.	.
dq	_	.	.
[16e	time	.	.
16e]	_	.	.
8d	has	.	.
16c	come	.	.
8G	_	.	.
16r	,	.	.
16G	for	.	.
=29	=29	=29	=29
dq	_	2g b- ee-	_
8e-	both	.	.
16f	of	.	.
fq	_	.	.
[16g	us	.	.
16g]	_	.	.
16f	to	.	.
16e-	live	.	.
fq	_	.	.
[16g	on	.	.
16g]	_	2f b- dd	_
16f	_	.	.
16f	the	.	.
cq	_	.	.
[16d	run	.	.
16d]	_	.	.
16c	_	.	.
16B-	_	.	.
16r	,	.	.
=30	=30	=30	=30
fq	_	1r	.
8g	oh	.	.
4f	,	.	.
cq	_	.	.
8d	yeah	.	.
4c	_	.	.
4r	!	.	.
=31	=31	=31	=31
fq	_	1r	.
8g	Oh	.	.
4f	,	.	.
cq	_	.	.
8d	yeah	.	.
4c	_	.	.
4r	!	.	.
=32	=32	=32	=32
8.r	.	1r	.
16A	And	.	.
8a	kno-	.	.
16b-	-wing	.	.
[16a	that	.	.
16a]	_	.	.
fq	_	.	.
8g	you	.	.
[16f	would	.	.
16f]	_	.	.
8.e	have	.	.
=33	=33	=33	=33
8f	wan-	1r	.
16g	-ted	.	.
[16f	it	.	.
16f]	_	.	.
8e	this	.	.
[16d	way	.	.
4d]	_	.	.
4r	.	.	.
=34	=34	=34	=34
8.r	.	1r	.
16A	I	.	.
8a	do	.	.
16b-	be-	.	.
[16a	-lieve	.	.
16a]	_	.	.
32f	I'm	.	.
32g	_	.	.
8g	_	.	.
16f	fee-	.	.
8.e	-ling	.	.
=35	=35	=35	=35
*M2/4	*	*M2/4	*
8f	stron-	2r	.
16g	-ger	.	.
16f	ev-	.	.
16e	-'ry-	.	.
32d	-day	.	.
32e	_	.	.
[8d	_	.	.
=36	=36	=36	=36
*M4/4	*	*M4/4	*
2d]	_	1r	.
2r	!	.	.
=37	=37	=37	=37
*M2/4	*	*M2/4	*
8.d	Yeah,	2r	.
[16e	yeah	.	.
8e]	,	.	.
eq	_	.	.
[8f	yeah	.	.
=38	=38	=38	=38
*M4/4	*	*M4/4	*
2f]	_	1r	.
2r	!	.	.
=39	=39	=39	=39
*M2/4	*	*M2/4	*
2r	.	2r	.
=40	=40	=40	=40
*M4/4	*	*M4/4	*
1r	.	1r	.
=41	=41	=41	=41
*M2/4	*	*M2/4	*
8.d	Yeah,	2r	.
[16e	yeah	.	.
8e]	,	.	.
eq	_	.	.
[8f	yeah	.	.
=42	=42	=42	=42
*M4/4	*	*M4/4	*
4f_	_	1r	.
16.f]	_	.	.
32e	_	.	.
32d	_	.	.
32c	_	.	.
16r	!	.	.
2r	.	.	.
=43	=43	=43	=43
B-q	_	1r	.
2.c	Hah	.	.
4r	...	.	.
=44	=44	=44	=44
1r	.	1r	.
=45	=45	=45	=45
1r	.	1r	.
=46	=46	=46	=46
1r	.	1r	.
=47	=47	=47	=47
1r	.	1r	.
=48	=48	=48	=48
*A:	*	*A:	*
1r	.	1r	.
=49	=49	=49	=49
1r	.	1r	.
=50	=50	=50	=50
2r	.	1r	.
8A	Af-	.	.
16c#	-ter	.	.
16e	what	.	.
16r	.	.	.
8a	you	.	.
aq	_	.	.
16b	meant	.	.
=51	=51	=51	=51
16r	.	1r	.
gq	_	.	.
8f#	to	.	.
[16e	me	.	.
4e]	_	.	.
4r	,	.	.
f#q	_	.	.
8.g#	ooh,	.	.
[16f#	ba	.	.
=52	=52	=52	=52
16f#]	_	1r	.
16d	by	.	.
16c#	_	.	.
[16B	now	.	.
8.B]	,	.	.
[16f#	I	.	.
16f#]	_	.	.
8f#	can	.	.
[16f#	make	.	.
16f#]	_	.	.
16g#	it	.	.
16a#	_	.	.
[16g#	ea	.	.
=53	=53	=53	=53
16g#]	_	2r	.
16e#	si	.	.
16d#	_	.	.
[16c#	ly	.	.
8c#]	_	.	.
8r	.	.	.
2r	.	4c# g#	Yeah,
.	.	4B f#	yeah,
=54	=54	=54	=54
2r	.	2.A e	yeah
16A	I	.	.
8c#	know	.	.
[16e	that	.	.
16e]	_	4r	!
8a	we	.	.
aq	_	.	.
[16b	both	.	.
=55	=55	=55	=55
16b]	_	[2.B [e	_
gq	_	.	.
8f#	a-	.	.
[16e	-gree	.	.
8e]	_	.	.
8r	,	.	.
8g#	best	.	.
16g#	thing	.	.
16f#	to	.	.
16g#	hap-	8B] e]	_
16f#	-pen	.	.
16e	to	8r	.
f#q	_	.	.
[16g#	you	.	.
=56	=56	=56	=56
16g#]	_	2B f#	_
8f#	_	.	.
16r	.	.	.
8.r	.	.	.
16c#	the	.	.
8cc#	best	2c# f#	_
16cc#	thing	.	.
16cc#	to	.	.
16a#	hap-	.	.
16g#	-pen	.	.
16f#	to	.	.
[16a#	me	.	.
=57	=57	=57	=57
16a#]	_	2r	.
[8.g#	_	.	.
8.g#]	,	.	.
16f#	y-	.	.
8.g#	-yeah,	4c# g#	Yeah,
16f#	y-	.	.
8.f#	-yeah,	4B f#	yeah,
16e	y...	.	.
=58	=58	=58	=58
1r	.	4.A e	yeah!
.	.	8r	.
.	.	2r	.
=59	=59	=59	=59
1r	.	1r	.
=60	=60	=60	=60
1r	.	1r	.
=61	=61	=61	=61
1r	.	16e a	Wow
.	.	8.f# b	_
.	.	4r	!
.	.	2r	.
=62	=62	=62	=62
1r	.	1r	.
=63	=63	=63	=63
1r	.	16e a	Wow
.	.	8.f# b	_
.	.	4r	!
.	.	2r	.
=64	=64	=64	=64
1r	.	1r	.
=65	=65	=65	=65
1r	.	16e a	Wow
.	.	8.f# b	_
.	.	4r	!
.	.	2r	.
=66	=66	=66	=66
*	*	*clefC3	*
4r	.	4r	.
8g#	Fee-	8c#	Fee-
8b	-lin'	8e	-lin'
8b	stron-	8e	stron-
8b	-ger	8e	-ger
8b	ev-	8e	ev-
16g#	-'ry-	16c#	-'ry-
[16f#	-day	[16B	-day
=67	=67	=67	=67
2.f#_	_	2.B_	_
8f#]	_	8B]	_
8r	!	8r	!
=68	=68	=68	=68
4r	.	4r	.
8f#	Fee-	8B	Fee-
8g#	-lin'	8c#	-lin'
8b	stron-	8e	stron-
8b	-ger	8e	-ger
8b	ev-	8e	ev-
16g#	-'ry-	16c#	-'ry-
[16f#	-day	[16B	-day
=69	=69	=69	=69
2.f#_	_	2.B_	_
8f#]	_	8B]	_
8r	!	8r	!
=70	=70	=70	=70
1r	.	4r	.
.	.	8c# g#	Fee-
.	.	8e b	-lin'
.	.	8e b	stron-
.	.	8e b	-ger
.	.	8e b	ev-
.	.	16c# g#	-'ry-
.	.	[16B [f#	-day
=71	=71	=71	=71
2r	.	2.B_ f#_	_
16e b	(vocalizing)	.	.
16c# g#	_	.	.
16A e	_	.	.
16B f#	_	.	.
16r	.	8B] f#]	_
16B f#	_	.	.
[8A [e	_	8r	!
=72	=72	=72	=72
2A] e]	_	4r	.
.	.	8c# g#	Fee-
.	.	8e b	-lin'
2r	.	8e b	stron-
.	.	8e b	-ger
.	.	8e b	ev-
.	.	16c# g#	-'ry-
.	.	[16B [f#	-day
=73	=73	=73	=73
2r	.	2.B_ f#_	_
16e b	(vocalizing)	.	.
16c# g#	_	.	.
16A e	_	.	.
16B f#	_	.	.
16r	.	8B] f#]	_
16B f#	_	.	.
[8A [e	_	8r	!
=74	=74	=74	=74
2A] e]	_	4r	.
.	.	8c# g#	Fee-
.	.	8e b	-lin'
2r	.	8e b	stron-
.	.	8e b	-ger
.	.	8e b	ev-
.	.	16c# g#	-'ry-
.	.	[16B [f#	-day
=75	=75	=75	=75
2r	.	2.B_ f#_	_
16e b	(vocalizing)	.	.
16c# g#	_	.	.
16A e	_	.	.
16B f#	_	.	.
16r	.	8B] f#]	_
16B f#	_	.	.
[8A [e	_	8r	!
=76	=76	=76	=76
2A] e]	_	4r	.
.	.	8c# g#	Fee-
.	.	8e b	-lin'
2r	.	8e b	stron-
.	.	8e b	-ger
.	.	8e b	ev-
.	.	16c# g#	-'ry-
.	.	[16B [f#	-day
=77	=77	=77	=77
2r	.	2.B_ f#_	_
16e b	(vocalizing)	.	.
16c# g#	_	.	.
16A e	_	.	.
16B f#	_	.	.
16r	.	8B] f#]	_
16B f#	_	.	.
[8A [e	_	8r	!
=78	=78	=78	=78
2A] e]	_	4r	.
.	.	8c# g#	Fee-
.	.	8e b	-lin'
2r	.	8e b	stron-
.	.	8e b	-ger
.	.	8e b	ev-
.	.	16c# g#	-'ry-
.	.	[16B [f#	-day
=79	=79	=79	=79
2r	.	2.B_ f#_	_
16e b	(vocalizing)	.	.
16c# g#	_	.	.
16A e	_	.	.
16B f#	_	.	.
16r	.	8B] f#]	_
16B f#	_	.	.
[8A [e	_	8r	!
=80	=80	=80	=80
2A] e]	_	4r	.
.	.	8c# g#	Fee-
.	.	8e b	-lin'
2r	.	8e b	stron-
.	.	8e b	-ger
.	.	8e b	ev-
.	.	16c# g#	-'ry-
.	.	[16B [f#	-day
=81	=81	=81	=81
2r	.	2.B_ f#_	_
16e b	(vocalizing)	.	.
16c# g#	_	.	.
16A e	_	.	.
16B f#	_	.	.
16r	.	8B] f#]	_
16B f#	_	.	.
[8A [e	_	8r	!
=82	=82	=82	=82
2A] e]	_	4r	.
.	.	8c# g#	Fee-
.	.	8e b	-lin'
2r	.	8e b	stron-
.	.	8e b	-ger
.	.	8e b	ev-
.	.	16c# g#	-'ry-
.	.	[16B [f#	-day
=83	=83	=83	=83
2r	.	2.B_ f#_	_
16e b	(vocalizing)	.	.
16c# g#	_	.	.
16A e	_	.	.
16B f#	_	.	.
16r	.	8B] f#]	_
16B f#	_	.	.
[8A [e	_	8r	!
=84	=84	=84	=84
2A] e]	_	4r	.
.	.	8c# g#	Fee-
.	.	8e b	-lin'
2r	.	8e b	stron-
.	.	8e b	-ger
.	.	8e b	ev-
.	.	16c# g#	-'ry-
.	.	[16B [f#	-day
=85	=85	=85	=85
2r	.	2.B_ f#_	_
16e b	(vocalizing)	.	.
16c# g#	_	.	.
16A e	_	.	.
16B f#	_	.	.
16r	.	8B] f#]	_
16B f#	_	.	.
[8A [e	_	8r	!
=86	=86	=86	=86
2A] e]	_	4r	.
.	.	8c# g#	Fee-
.	.	8e b	-lin'
2r	.	8e b	stron-
.	.	8e b	-ger
.	.	8e b	ev-
.	.	16c# g#	-'ry-
.	.	[16B [f#	-day
=87	=87	=87	=87
2r	.	2.B_ f#_	_
16e b	(vocalizing)	.	.
16c# g#	_	.	.
16A e	_	.	.
16B f#	_	.	.
16r	.	8B] f#]	_
16B f#	_	.	.
8A e	_	8r	!
*-	*-	*-	*-
!!!ENC: Nathaniel Condit-Schultz